X: 30406
T: Old Stage, The
R: slide
M: 12/8
K: Bminor
f2B BAB ABA AFA|f2B BAB g2g f2e|
f2B BAB ABA AFA|Bcd ecA d3 d3:|
d2d fdd add fdd|d2d fdd g2g f2e|
d2d fdd add fdd|a2a aba g3 f2e:|

